raycast/extensions/amzn-raycast-extension/assets/three.svg

<svg width="16" height="16" viewBox="0 0 16 16" fill="none" xmlns="http://www.w3.org/2000/svg">
<rect x="1.5" y="1.5" width="13" height="13" rx="3.5" stroke="white"/>
<path fill-rule="evenodd" clip-rule="evenodd" d="M8.00481 5.025C7.40916 5.02515 6.84595 5.32338 6.66775 5.71438C6.52174 6.03476 6.14365 6.17611 5.82327 6.03009C5.5029 5.88408 5.36155 5.50599 5.50756 5.18562C5.96852 4.17421 7.12207 3.75 8.00526 3.75H8.00611C8.34064 3.75045 8.67181 3.81678 8.98071 3.94521C9.28961 4.07365 9.57019 4.26167 9.80643 4.49854C10.0427 4.7354 10.2299 5.01648 10.3575 5.32573C10.4852 5.63497 10.5506 5.96632 10.5502 6.30085L9.91266 6.3H10.5502C10.5502 7.0302 10.1918 7.61031 9.70138 8C10.1917 8.38958 10.55 8.96949 10.5502 9.6994C10.5506 10.0339 10.4851 10.3651 10.3575 10.6743C10.2299 10.9835 10.0427 11.2646 9.80643 11.5015C9.57019 11.7383 9.28961 11.9264 8.98071 12.0548C8.67182 12.1832 8.34064 12.2496 8.00611 12.25L8.00526 12.25C7.12541 12.25 5.96147 11.8351 5.50516 10.809C5.36209 10.4873 5.50691 10.1106 5.82861 9.9675C6.15032 9.82444 6.52709 9.96925 6.67015 10.291C6.84279 10.6792 7.40068 10.9748 8.00473 10.975C8.17172 10.9747 8.33703 10.9416 8.49122 10.8775C8.64552 10.8133 8.78567 10.7194 8.90367 10.6011C9.02167 10.4828 9.11521 10.3424 9.17895 10.1879C9.24269 10.0335 9.27538 9.86795 9.27516 9.70085L9.27516 9.7C9.27516 9.41232 9.13697 9.1648 8.86844 8.9679C8.58997 8.76371 8.19432 8.6375 7.78766 8.6375C7.43557 8.6375 7.15016 8.35208 7.15016 8C7.15016 7.64792 7.43557 7.3625 7.78766 7.3625C8.19432 7.3625 8.58997 7.23629 8.86844 7.0321C9.13697 6.8352 9.27516 6.58768 9.27516 6.3L9.27516 6.29915C9.27538 6.13205 9.24269 5.96654 9.17895 5.81207C9.11521 5.65761 9.02167 5.51721 8.90367 5.39889C8.78567 5.28058 8.64552 5.18666 8.49122 5.12251C8.33705 5.05841 8.17178 5.02528 8.00481 5.025ZM10.5502 9.6994C10.5502 9.6996 10.5502 9.6998 10.5502 9.7H9.91266L10.5502 9.69915C10.5502 9.69923 10.5502 9.69932 10.5502 9.6994Z" fill="white"/>
</svg>

<svg width="16" height="16" fill="none" xmlns="http://www.w3.org/2000/svg"><rect x="1.5" y="1.5" width="13" height="13" rx="3.5" stroke="#fff"/><path fill-rule="evenodd" clip-rule="evenodd" d="M8.005 5.025c-.596 0-1.16.298-1.337.69a.637.637 0 11-1.16-.53c.46-1.01 1.614-1.435 2.497-1.435h.001A2.548 2.548 0 0110.55 6.3h-.637.637c0 .73-.358 1.31-.849 1.7.49.39.849.97.85 1.7a2.547 2.547 0 01-2.545 2.55c-.88 0-2.045-.415-2.5-1.441a.637.637 0 111.164-.518c.173.388.73.684 1.335.684a1.273 1.273 0 001.27-1.274V9.7c0-.288-.138-.535-.407-.732a1.87 1.87 0 00-1.08-.33.637.637 0 110-1.276 1.87 1.87 0 001.08-.33c.269-.197.407-.444.407-.732a1.273 1.273 0 00-1.27-1.275zm2.545 4.674V9.7h-.637.637z" fill="#fff"/></svg>
